src/components/assets/about.svg

<svg width="666" height="613" fill="none" xmlns="http://www.w3.org/2000/svg"><path fill="url(#paint0_linear)" d="M0 0h666v613H0z"/><mask id="a" maskUnits="userSpaceOnUse" x="0" y="0" width="666" height="613"><path fill="#fff" d="M0 0h666v613H0z"/></mask><g mask="url(#a)"><path stroke="#fff" d="M511.5 458.5h154v154h-154z"/></g><path clip-rule="evenodd" d="M630 586l-34.217-100h-13.566L548 586h14.624l16.115-48.854L589 505.068l13.963 43.643.383 1.162h-21.529l26.976 16.495L615.529 586H630z" stroke="#fff" stroke-width="1.5"/><path stroke="#fff" d="M511.5.5h154v458h-154zM-14.5.5h526v612h-526z"/><path d="M583.341 399.51v-1.251l7.916-2.249-7.383-2.4v-.957l7.383-2.392-7.916-2.249v-1.251l9.659 2.823v1.189l-7.226 2.359L593 395.49v1.197l-9.659 2.823zm0-20.609v-6.35h1.107v5.147h3.152v-4.682h1.114v4.682h3.144v-5.147H593v6.35h-9.659zm0-14.64v-1.203h8.517v-4.328H593v5.531h-9.659zm9.775-16.767c0 .962-.214 1.78-.642 2.454a4.015 4.015 0 0 1-1.771 1.518c-.747.337-1.595.506-2.543.506-.952 0-1.8-.169-2.543-.506a4.019 4.019 0 0 1-1.763-1.525c-.429-.679-.643-1.506-.643-2.481 0-.953.226-1.771.677-2.454.451-.684 1.114-1.208 1.989-1.572l.451 1.128c-.679.218-1.176.574-1.49 1.066-.319.488-.479 1.103-.479 1.846 0 .724.158 1.335.472 1.832.315.492.754.861 1.319 1.107.561.242 1.215.362 1.962.362.752 0 1.418-.116 1.996-.348a2.945 2.945 0 0 0 1.361-1.08c.332-.493.499-1.11.499-1.853 0-.724-.16-1.326-.479-1.805-.319-.483-.822-.868-1.51-1.155l.458-1.114c.875.378 1.54.916 1.996 1.613.455.693.683 1.513.683 2.461zm0-15.803c0 .985-.223 1.814-.67 2.489a4.096 4.096 0 0 1-1.791 1.51c-.752.333-1.581.499-2.488.499s-1.734-.166-2.481-.499a4.096 4.096 0 0 1-1.791-1.51c-.447-.675-.67-1.504-.67-2.489 0-.989.223-1.82.67-2.495a4.078 4.078 0 0 1 1.791-1.517c.747-.338 1.574-.506 2.481-.506.907 0 1.736.168 2.488.506a4.078 4.078 0 0 1 1.791 1.517c.447.675.67 1.506.67 2.495zm-1.073 0c0-.738-.173-1.349-.52-1.832a3.015 3.015 0 0 0-1.387-1.073c-.584-.228-1.24-.342-1.969-.342-.725 0-1.376.114-1.955.342a3.022 3.022 0 0 0-1.395 1.073c-.346.483-.519 1.094-.519 1.832 0 .734.173 1.343.519 1.826.347.483.812.838 1.395 1.066.579.228 1.23.342 1.955.342.725 0 1.379-.114 1.962-.342a3.027 3.027 0 0 0 1.394-1.066c.347-.483.52-1.092.52-1.826zm-8.702-22.057H593v1.162h-8.032l7.225 2.912v1.176l-7.225 2.912H593v1.162h-9.659v-1.647l7.506-3.015-7.506-3.015v-1.647zm0-8.871v-6.351h1.107v5.148h3.152v-4.683h1.114v4.683h3.144v-5.148H593v6.351h-9.659zm0-26.739v-.957L593 269.39v1.305l-2.256.807v4.067l2.256.821v1.312l-9.659-3.678zm6.371-2.146l-4.649 1.661 4.649 1.654v-3.315zm-6.371-10.266v-2.843c0-.62.109-1.176.328-1.668a2.64 2.64 0 0 1 .943-1.169c.41-.283.9-.424 1.47-.424.624 0 1.155.18 1.593.54.437.36.74.845.909 1.456l4.416-2.68v1.374l-4.3 2.475c.009.127.014.333.014.615v1.121H593v1.203h-9.659zm4.388-2.946c-.018-.624-.168-1.107-.451-1.449-.282-.342-.674-.513-1.175-.513-.525 0-.935.182-1.231.547-.301.365-.451.868-.451 1.511v1.634h3.308v-1.73zm-4.388-14.251v-.957L593 239.78v1.306l-2.256.807v4.067l2.256.82v1.313l-9.659-3.678zm6.371-2.146l-4.649 1.661 4.649 1.654v-3.315zm3.404-13.664c0 .962-.214 1.78-.642 2.455a4.02 4.02 0 0 1-1.771 1.517c-.747.337-1.595.506-2.543.506-.952 0-1.8-.169-2.543-.506a3.977 3.977 0 0 1-1.763-1.517c-.429-.679-.643-1.509-.643-2.489 0-.952.226-1.768.677-2.447.451-.684 1.114-1.208 1.989-1.572l.451 1.073c-1.372.483-2.057 1.47-2.057 2.96 0 .725.164 1.335.492 1.832a3 3 0 0 0 1.36 1.107c.574.242 1.237.363 1.989.363s1.424-.116 2.017-.349a2.997 2.997 0 0 0 1.394-1.08c.342-.492.513-1.11.513-1.853 0-.824-.212-1.497-.636-2.016-.428-.52-1.046-.836-1.852-.95l-.629-.028v2.297h-.978v-3.479H593v.957l-1.613.102c.551.301.977.718 1.278 1.251.301.533.451 1.156.451 1.866zm0-16.541c0 .985-.223 1.814-.67 2.489a4.096 4.096 0 0 1-1.791 1.51c-.752.333-1.581.499-2.488.499s-1.734-.166-2.481-.499a4.096 4.096 0 0 1-1.791-1.51c-.447-.675-.67-1.504-.67-2.489 0-.988.223-1.82.67-2.495a4.078 4.078 0 0 1 1.791-1.517c.747-.337 1.574-.506 2.481-.506.907 0 1.736.169 2.488.506a4.078 4.078 0 0 1 1.791 1.517c.447.675.67 1.507.67 2.495zm-1.073 0c0-.738-.173-1.349-.52-1.832a3.015 3.015 0 0 0-1.387-1.073c-.584-.228-1.24-.342-1.969-.342-.725 0-1.376.114-1.955.342a3.022 3.022 0 0 0-1.395 1.073c-.346.483-.519 1.094-.519 1.832 0 .734.173 1.343.519 1.826.347.483.812.838 1.395 1.066.579.228 1.23.342 1.955.342.725 0 1.379-.114 1.962-.342a3.027 3.027 0 0 0 1.394-1.066c.347-.483.52-1.092.52-1.826zm-8.702-19.685H593v1.244l-7.704 4.546H593v1.162h-9.659v-1.23l7.683-4.56h-7.683v-1.162zm9.775-22.24c0 .984-.223 1.813-.67 2.488a4.105 4.105 0 0 1-1.791 1.511c-.752.332-1.581.499-2.488.499s-1.734-.167-2.481-.499a4.105 4.105 0 0 1-1.791-1.511c-.447-.675-.67-1.504-.67-2.488 0-.989.223-1.821.67-2.495a4.087 4.087 0 0 1 1.791-1.518c.747-.337 1.574-.506 2.481-.506.907 0 1.736.169 2.488.506a4.087 4.087 0 0 1 1.791 1.518c.447.674.67 1.506.67 2.495zm-1.073 0c0-.739-.173-1.349-.52-1.832a3.01 3.01 0 0 0-1.387-1.074c-.584-.227-1.24-.341-1.969-.341-.725 0-1.376.114-1.955.341a3.017 3.017 0 0 0-1.395 1.074c-.346.483-.519 1.093-.519 1.832 0 .733.173 1.342.519 1.825.347.483.812.838 1.395 1.066.579.228 1.23.342 1.955.342.725 0 1.379-.114 1.962-.342a3.027 3.027 0 0 0 1.394-1.066c.347-.483.52-1.092.52-1.825zm-8.702-19.686H593v1.244l-7.704 4.546H593v1.162h-9.659v-1.23l7.683-4.56h-7.683v-1.162zm0-8.878v-6.35h1.107v5.147h3.152v-4.683h1.114v4.683h3.144v-5.147H593v6.35h-9.659zm9.775-27.989c0 .962-.214 1.78-.642 2.454a4.021 4.021 0 0 1-1.771 1.518c-.747.337-1.595.505-2.543.505-.952 0-1.8-.168-2.543-.505a4.019 4.019 0 0 1-1.763-1.525c-.429-.679-.643-1.506-.643-2.481 0-.953.226-1.771.677-2.454.451-.684 1.114-1.208 1.989-1.573l.451 1.128c-.679.219-1.176.575-1.49 1.067-.319.487-.479 1.103-.479 1.845 0 .725.158 1.336.472 1.832.315.493.754.862 1.319 1.108.561.241 1.215.362 1.962.362.752 0 1.418-.116 1.996-.348a2.94 2.94 0 0 0 1.361-1.081c.332-.492.499-1.109.499-1.852 0-.725-.16-1.326-.479-1.805-.319-.483-.822-.868-1.51-1.155l.458-1.114c.875.378 1.54.916 1.996 1.613.455.693.683 1.513.683 2.461zm-9.775-12.064v-2.843c0-.62.109-1.176.328-1.668.214-.497.529-.887.943-1.17.41-.282.9-.423 1.47-.423.624 0 1.155.18 1.593.54.437.36.74.845.909 1.456l4.416-2.68v1.374l-4.3 2.475c.009.128.014.333.014.615v1.121H593v1.203h-9.659zm4.388-2.946c-.018-.624-.168-1.107-.451-1.449-.282-.342-.674-.513-1.175-.513-.525 0-.935.182-1.231.547-.301.365-.451.868-.451 1.51v1.635h3.308v-1.73zm-4.388-11.708v-6.35h1.107v5.147h3.152v-4.683h1.114v4.683h3.144v-5.147H593v6.35h-9.659zm0-13.622v-1.25l7.916-2.25-7.383-2.4v-.956l7.383-2.393-7.916-2.249v-1.25L593 63.32v1.19l-7.226 2.358L593 69.227v1.196l-9.659 2.823z" fill="#fff"/><path d="M383.316 275.551l-3.544-29.784 11.622-2.107-8.078 31.891z" fill="#363636" opacity=".01"/><path d="M390.303 243.391l1.411.396c-4.317 17.342-6.826 27.374-7.527 30.095-.701 2.722-1.293 4.082-1.776 4.082l-2.391-31.842 1.232-.087 1.883 26.642 7.168-29.286z" fill="#fff"/><path d="M382.739 277.521l-14.069-13.42-6.794-7.24-14.204-7.163-30.166 2.022M200.607 440.549l55.43-63.617M254.03 379.166v100.512" stroke="#fff" stroke-width="1.36"/><path d="M368.438 264.024h-32.585l-71.016 118.3-8.646-5.392-33.041-45.286" stroke="#fff" stroke-width="1.36"/><path d="M269.006 474.591l37.673-42.36-35.743-59.843M212.497 205.49l36.129-22.643 45.393-5.7 48.944 18.485 10.344 16.02" stroke="#fff" stroke-width="1.36"/><path fill-rule="evenodd" clip-rule="evenodd" d="M235.375 275.401l-23.009-70.581-96.284 107.406 118.788-35.695.505-.492v-.638zm-23.52-68.163l22.246 68.237-114.172 34.308 91.926-102.545z" fill="#fff"/><path d="M198.446 449.946l36.438-174.369" stroke="#fff" stroke-width="1.36"/><path clip-rule="evenodd" d="M235.309 275.346l82.177-23.338 12.661-29.883-15.13-4.004-79.708 57.225z" stroke="#fff" stroke-width="1.36"/><path d="M299.808 229.057l-17.524-4.004-2.084-7.086-14.822-6.084" stroke="#fff" stroke-width="1.36"/><path clip-rule="evenodd" d="M103.339 330.722l14.203-19.101-4.632 88.725-13.277-7.086 3.706-62.538z" stroke="#fff" stroke-width="1.36"/><path d="M285.836 346.741h124.446M316.252 296.68l37.827 50.061M306.37 432.231l51.106-10.32M212.651 205.336l102.366 12.631M315.171 217.967l38.136-6.316 24.086 7.394 13.432 24.337-10.344 2.774-19.146-20.18-31.497-3.851" stroke="#fff" stroke-width="1.36"/><path fill-rule="evenodd" clip-rule="evenodd" d="M256.186 493.888l.138-.332.103.245L417.613 398.6V164.092l-161.42-43.868-.007-.024L95 164.092V398.6l161.186 95.288zm150.074-101.74l-149.954 88.667-149.954-88.667V172.74l149.954-40.834L406.26 172.74v219.408z" fill="url(#paint1_linear)"/><defs><linearGradient id="paint0_linear" x1="499.5" y1="-295.534" x2="-119.027" y2="52.935" gradientUnits="userSpaceOnUse"><stop stop-color="#FF7C56"/><stop offset="1" stop-color="#FF5D5D"/></linearGradient><linearGradient id="paint1_linear" x1="-238.328" y1="90.624" x2="-238.328" y2="802.719" gradientUnits="userSpaceOnUse"><stop stop-color="#FF997B"/><stop offset="1" stop-color="#EF6590"/><stop offset="1" stop-color="#EE6293"/></linearGradient></defs></svg>

<svg width="666" height="613" viewBox="0 0 666 613" fill="none" xmlns="http://www.w3.org/2000/svg">
<rect width="666" height="613" fill="url(#paint0_linear)"/>
<mask id="mask0" mask-type="alpha" maskUnits="userSpaceOnUse" x="0" y="0" width="666" height="613">
<rect width="666" height="613" fill="white"/>
</mask>
<g mask="url(#mask0)">
<rect x="511.5" y="458.5" width="154" height="154" stroke="white"/>
</g>
<path fill-rule="evenodd" clip-rule="evenodd" d="M630 586L595.783 486H582.217L548 586H562.624L578.739 537.146L589 505.068L602.963 548.711L603.346 549.873H581.817L608.793 566.368L615.529 586H630Z" stroke="white" stroke-width="1.5"/>
<rect x="511.5" y="0.5" width="154" height="458" stroke="white"/>
<rect x="-14.5" y="0.5" width="526" height="612" stroke="white"/>
<path d="M583.341 399.51V398.259L591.257 396.01L583.874 393.61V392.653L591.257 390.261L583.341 388.012V386.761L593 389.584V390.773L585.774 393.132L593 395.49V396.687L583.341 399.51ZM583.341 378.901V372.551H584.448V377.698H587.6V373.016H588.714V377.698H591.858V372.551H593V378.901H583.341ZM583.341 364.261V363.058H591.858V358.73H593V364.261H583.341ZM593.116 347.494C593.116 348.456 592.902 349.274 592.474 349.948C592.041 350.623 591.451 351.129 590.703 351.466C589.956 351.803 589.108 351.972 588.16 351.972C587.208 351.972 586.36 351.803 585.617 351.466C584.87 351.124 584.282 350.616 583.854 349.941C583.425 349.262 583.211 348.435 583.211 347.46C583.211 346.507 583.437 345.689 583.888 345.006C584.339 344.322 585.002 343.798 585.877 343.434L586.328 344.562C585.649 344.78 585.152 345.136 584.838 345.628C584.519 346.116 584.359 346.731 584.359 347.474C584.359 348.198 584.517 348.809 584.831 349.306C585.146 349.798 585.585 350.167 586.15 350.413C586.711 350.655 587.365 350.775 588.112 350.775C588.864 350.775 589.53 350.659 590.108 350.427C590.683 350.194 591.136 349.834 591.469 349.347C591.801 348.854 591.968 348.237 591.968 347.494C591.968 346.77 591.808 346.168 591.489 345.689C591.17 345.206 590.667 344.821 589.979 344.534L590.437 343.42C591.312 343.798 591.977 344.336 592.433 345.033C592.888 345.726 593.116 346.546 593.116 347.494ZM593.116 331.691C593.116 332.676 592.893 333.505 592.446 334.18C592 334.854 591.403 335.358 590.655 335.69C589.903 336.023 589.074 336.189 588.167 336.189C587.26 336.189 586.433 336.023 585.686 335.69C584.938 335.358 584.341 334.854 583.895 334.18C583.448 333.505 583.225 332.676 583.225 331.691C583.225 330.702 583.448 329.871 583.895 329.196C584.341 328.517 584.938 328.011 585.686 327.679C586.433 327.341 587.26 327.173 588.167 327.173C589.074 327.173 589.903 327.341 590.655 327.679C591.403 328.011 592 328.517 592.446 329.196C592.893 329.871 593.116 330.702 593.116 331.691ZM592.043 331.691C592.043 330.953 591.87 330.342 591.523 329.859C591.177 329.372 590.715 329.014 590.136 328.786C589.552 328.558 588.896 328.444 588.167 328.444C587.442 328.444 586.791 328.558 586.212 328.786C585.629 329.014 585.164 329.372 584.817 329.859C584.471 330.342 584.298 330.953 584.298 331.691C584.298 332.425 584.471 333.034 584.817 333.517C585.164 334 585.629 334.355 586.212 334.583C586.791 334.811 587.442 334.925 588.167 334.925C588.892 334.925 589.546 334.811 590.129 334.583C590.712 334.355 591.177 334 591.523 333.517C591.87 333.034 592.043 332.425 592.043 331.691ZM583.341 309.634H593V310.796H584.968L592.193 313.708V314.884L584.968 317.796H593V318.958H583.341V317.311L590.847 314.296L583.341 311.281V309.634ZM583.341 300.763V294.412H584.448V299.56H587.6V294.877H588.714V299.56H591.858V294.412H593V300.763H583.341ZM583.341 274.024V273.067L593 269.39V270.695L590.744 271.502V275.569L593 276.39V277.702L583.341 274.024ZM589.712 271.878L585.063 273.539L589.712 275.193V271.878ZM583.341 261.612V258.769C583.341 258.149 583.45 257.593 583.669 257.101C583.883 256.604 584.198 256.214 584.612 255.932C585.022 255.649 585.512 255.508 586.082 255.508C586.706 255.508 587.237 255.688 587.675 256.048C588.112 256.408 588.415 256.893 588.584 257.504L593 254.824V256.198L588.7 258.673C588.709 258.8 588.714 259.006 588.714 259.288V260.409H593V261.612H583.341ZM587.729 258.666C587.711 258.042 587.561 257.559 587.278 257.217C586.996 256.875 586.604 256.704 586.103 256.704C585.578 256.704 585.168 256.886 584.872 257.251C584.571 257.616 584.421 258.119 584.421 258.762V260.396H587.729V258.666ZM583.341 244.415V243.458L593 239.78V241.086L590.744 241.893V245.96L593 246.78V248.093L583.341 244.415ZM589.712 242.269L585.063 243.93L589.712 245.584V242.269ZM593.116 228.605C593.116 229.567 592.902 230.385 592.474 231.06C592.041 231.734 591.451 232.24 590.703 232.577C589.956 232.914 589.108 233.083 588.16 233.083C587.208 233.083 586.36 232.914 585.617 232.577C584.87 232.24 584.282 231.734 583.854 231.06C583.425 230.381 583.211 229.551 583.211 228.571C583.211 227.619 583.437 226.803 583.888 226.124C584.339 225.44 585.002 224.916 585.877 224.552L586.328 225.625C584.956 226.108 584.271 227.095 584.271 228.585C584.271 229.31 584.435 229.92 584.763 230.417C585.091 230.909 585.544 231.278 586.123 231.524C586.697 231.766 587.36 231.887 588.112 231.887C588.864 231.887 589.536 231.771 590.129 231.538C590.717 231.306 591.182 230.946 591.523 230.458C591.865 229.966 592.036 229.348 592.036 228.605C592.036 227.781 591.824 227.108 591.4 226.589C590.972 226.069 590.354 225.753 589.548 225.639L588.919 225.611V227.908H587.941V224.429H593V225.386L591.387 225.488C591.938 225.789 592.364 226.206 592.665 226.739C592.966 227.272 593.116 227.895 593.116 228.605ZM593.116 212.064C593.116 213.049 592.893 213.878 592.446 214.553C592 215.227 591.403 215.731 590.655 216.063C589.903 216.396 589.074 216.562 588.167 216.562C587.26 216.562 586.433 216.396 585.686 216.063C584.938 215.731 584.341 215.227 583.895 214.553C583.448 213.878 583.225 213.049 583.225 212.064C583.225 211.076 583.448 210.244 583.895 209.569C584.341 208.89 584.938 208.384 585.686 208.052C586.433 207.715 587.26 207.546 588.167 207.546C589.074 207.546 589.903 207.715 590.655 208.052C591.403 208.384 592 208.89 592.446 209.569C592.893 210.244 593.116 211.076 593.116 212.064ZM592.043 212.064C592.043 211.326 591.87 210.715 591.523 210.232C591.177 209.745 590.715 209.387 590.136 209.159C589.552 208.931 588.896 208.817 588.167 208.817C587.442 208.817 586.791 208.931 586.212 209.159C585.629 209.387 585.164 209.745 584.817 210.232C584.471 210.715 584.298 211.326 584.298 212.064C584.298 212.798 584.471 213.407 584.817 213.89C585.164 214.373 585.629 214.728 586.212 214.956C586.791 215.184 587.442 215.298 588.167 215.298C588.892 215.298 589.546 215.184 590.129 214.956C590.712 214.728 591.177 214.373 591.523 213.89C591.87 213.407 592.043 212.798 592.043 212.064ZM583.341 192.379H593V193.623L585.296 198.169H593V199.331H583.341V198.101L591.024 193.541H583.341V192.379ZM593.116 170.139C593.116 171.123 592.893 171.952 592.446 172.627C592 173.301 591.403 173.805 590.655 174.138C589.903 174.47 589.074 174.637 588.167 174.637C587.26 174.637 586.433 174.47 585.686 174.138C584.938 173.805 584.341 173.301 583.895 172.627C583.448 171.952 583.225 171.123 583.225 170.139C583.225 169.15 583.448 168.318 583.895 167.644C584.341 166.965 584.938 166.459 585.686 166.126C586.433 165.789 587.26 165.62 588.167 165.62C589.074 165.62 589.903 165.789 590.655 166.126C591.403 166.459 592 166.965 592.446 167.644C592.893 168.318 593.116 169.15 593.116 170.139ZM592.043 170.139C592.043 169.4 591.87 168.79 591.523 168.307C591.177 167.819 590.715 167.461 590.136 167.233C589.552 167.006 588.896 166.892 588.167 166.892C587.442 166.892 586.791 167.006 586.212 167.233C585.629 167.461 585.164 167.819 584.817 168.307C584.471 168.79 584.298 169.4 584.298 170.139C584.298 170.872 584.471 171.481 584.817 171.964C585.164 172.447 585.629 172.802 586.212 173.03C586.791 173.258 587.442 173.372 588.167 173.372C588.892 173.372 589.546 173.258 590.129 173.03C590.712 172.802 591.177 172.447 591.523 171.964C591.87 171.481 592.043 170.872 592.043 170.139ZM583.341 150.453H593V151.697L585.296 156.243H593V157.405H583.341V156.175L591.024 151.615H583.341V150.453ZM583.341 141.575V135.225H584.448V140.372H587.6V135.689H588.714V140.372H591.858V135.225H593V141.575H583.341ZM593.116 113.586C593.116 114.548 592.902 115.366 592.474 116.04C592.041 116.715 591.451 117.22 590.703 117.558C589.956 117.895 589.108 118.063 588.16 118.063C587.208 118.063 586.36 117.895 585.617 117.558C584.87 117.216 584.282 116.708 583.854 116.033C583.425 115.354 583.211 114.527 583.211 113.552C583.211 112.599 583.437 111.781 583.888 111.098C584.339 110.414 585.002 109.89 585.877 109.525L586.328 110.653C585.649 110.872 585.152 111.228 584.838 111.72C584.519 112.207 584.359 112.823 584.359 113.565C584.359 114.29 584.517 114.901 584.831 115.397C585.146 115.89 585.585 116.259 586.15 116.505C586.711 116.746 587.365 116.867 588.112 116.867C588.864 116.867 589.53 116.751 590.108 116.519C590.683 116.286 591.136 115.926 591.469 115.438C591.801 114.946 591.968 114.329 591.968 113.586C591.968 112.861 591.808 112.26 591.489 111.781C591.17 111.298 590.667 110.913 589.979 110.626L590.437 109.512C591.312 109.89 591.977 110.428 592.433 111.125C592.888 111.818 593.116 112.638 593.116 113.586ZM583.341 101.522V98.6787C583.341 98.0589 583.45 97.5029 583.669 97.0107C583.883 96.514 584.198 96.1243 584.612 95.8418C585.022 95.5592 585.512 95.418 586.082 95.418C586.706 95.418 587.237 95.598 587.675 95.958C588.112 96.318 588.415 96.8034 588.584 97.4141L593 94.7344V96.1084L588.7 98.583C588.709 98.7106 588.714 98.9157 588.714 99.1982V100.319H593V101.522H583.341ZM587.729 98.5762C587.711 97.9518 587.561 97.4688 587.278 97.127C586.996 96.7852 586.604 96.6143 586.103 96.6143C585.578 96.6143 585.168 96.7965 584.872 97.1611C584.571 97.5257 584.421 98.0293 584.421 98.6719V100.306H587.729V98.5762ZM583.341 86.8682V80.5176H584.448V85.665H587.6V80.9824H588.714V85.665H591.858V80.5176H593V86.8682H583.341ZM583.341 73.2461V71.9951L591.257 69.7461L583.874 67.3467V66.3896L591.257 63.9971L583.341 61.748V60.4971L593 63.3203V64.5098L585.774 66.8682L593 69.2266V70.4229L583.341 73.2461Z" fill="white"/>
<g opacity="0.01">
<path d="M383.316 275.551L379.772 245.767L391.394 243.66L383.316 275.551Z" fill="#363636"/>
</g>
<path d="M390.303 243.391L391.714 243.787C387.397 261.129 384.888 271.161 384.187 273.882C383.486 276.604 382.894 277.964 382.411 277.964L380.02 246.122L381.252 246.035L383.135 272.677L390.303 243.391Z" fill="white"/>
<path d="M382.739 277.521L368.67 264.101L361.876 256.861L347.672 249.698L317.506 251.72" stroke="white" stroke-width="1.36"/>
<path d="M200.607 440.549L256.037 376.932" stroke="white" stroke-width="1.36"/>
<path d="M254.03 379.166V479.678" stroke="white" stroke-width="1.36"/>
<path d="M368.438 264.024H335.853L264.837 382.324L256.191 376.932L223.15 331.646" stroke="white" stroke-width="1.36"/>
<path d="M269.006 474.591L306.679 432.231L270.936 372.388" stroke="white" stroke-width="1.36"/>
<path d="M212.497 205.49L248.626 182.847L294.019 177.147L342.963 195.632L353.307 211.652" stroke="white" stroke-width="1.36"/>
<path fill-rule="evenodd" clip-rule="evenodd" d="M235.375 275.401L212.366 204.82L116.082 312.226L234.87 276.531L235.375 276.039V275.401ZM211.855 207.238L234.101 275.475L119.929 309.783L211.855 207.238Z" fill="white"/>
<path d="M198.446 449.946L234.884 275.577" stroke="white" stroke-width="1.36"/>
<path fill-rule="evenodd" clip-rule="evenodd" d="M235.309 275.346L317.486 252.008L330.147 222.125L315.017 218.121L235.309 275.346Z" stroke="white" stroke-width="1.36"/>
<path d="M299.808 229.057L282.284 225.053L280.2 217.967L265.378 211.883" stroke="white" stroke-width="1.36"/>
<path fill-rule="evenodd" clip-rule="evenodd" d="M103.339 330.722L117.542 311.621L112.91 400.346L99.6332 393.26L103.339 330.722Z" stroke="white" stroke-width="1.36"/>
<path d="M285.836 346.741H410.282" stroke="white" stroke-width="1.36"/>
<path d="M316.252 296.68L354.079 346.741" stroke="white" stroke-width="1.36"/>
<path d="M306.37 432.231L357.476 421.911" stroke="white" stroke-width="1.36"/>
<path d="M212.651 205.336L315.017 217.967" stroke="white" stroke-width="1.36"/>
<path d="M315.171 217.967L353.307 211.651L377.393 219.045L390.825 243.382L380.481 246.156L361.335 225.976L329.838 222.125" stroke="white" stroke-width="1.36"/>
<path fill-rule="evenodd" clip-rule="evenodd" d="M256.186 493.888L256.324 493.556L256.427 493.801L417.613 398.6V164.092L256.193 120.224L256.186 120.2L95 164.092V398.6L256.186 493.888ZM406.26 392.148L256.306 480.815L106.352 392.148V172.74L256.306 131.906L406.26 172.74V392.148Z" fill="url(#paint1_linear)"/>
<defs>
<linearGradient id="paint0_linear" x1="499.5" y1="-295.534" x2="-119.027" y2="52.9355" gradientUnits="userSpaceOnUse">
<stop stop-color="#FF7C56"/>
<stop offset="1" stop-color="#FF5D5D"/>
</linearGradient>
<linearGradient id="paint1_linear" x1="-238.328" y1="90.6241" x2="-238.328" y2="802.719" gradientUnits="userSpaceOnUse">
<stop stop-color="#FF997B"/>
<stop offset="1" stop-color="#EF6590"/>
<stop offset="1" stop-color="#EE6293"/>
</linearGradient>
</defs>
</svg>
